X:7017
T:Glen Cottage, The
R:Polka
C:Trad.
O:Ireland
Z:Paul Hardy's Session Tunebook 2015 (see www.paulhardy.net). Creative Commons cc by-nc-sa licenced.
M:2/4
L:1/8
Q:1/4=120
K:Ador
"Am"eA Bd|e/f/e/d/ Bd|eA BA|"G"G>A Bd|"Am"eA Bd|e/f/e/d/ Bd|"G"ea e/f/e/d/|"Am"BA A2:|
|:"Am"e2 ef/g/|ae fe|"G"d2 de/f/|"Em"ge fd|"Am"e2 ef/g/|ae fe|"G"ea e/f/e/d/|"Am" BA A2:|]

